X:1
T:Title
%%score { ( 1 3 4 ) | ( 2 5 ) }
L:1/8
M:4/4
K:C
V:1 treble nm="Grand Piano"
V:3 treble 
V:4 treble 
V:2 bass 
V:5 bass 
V:1
 z4 z2[Q:1/4=100] [CE][DF] | [EG]2 [EG]2 [Ec][EG]FE | D2 F2 A2 [FA][Fc] | B2 A2 GF[CE][B,D] | %4
 E2 A2 G2 E[DF] | [EG]2 [EG]2 [Ec][EG][_E^F][=EG] | [GB]2 [FA]2 [Fd]4 | %7
 [^Fe]>[Fd] [Fc][FA] [Fe][Fd][Fc][FA] | d8 | c4 z4 | z4 A4 | [^Fd]3 [FA] [F^G][FA][FB][Fc] | %12
 e2 d2 B2 GG | [Ec]>[DB] [Fd][Ec] [EG]2 FE | DEFG A4 | GABc ed z2 |[M:7/8] [^FA]2 [=FB]2 [Ec]3 |] %17
V:2
 z4 z2 [C,G,][C,G,] | [C,C]2 [C,G,]2 [C,G,][C,G,][D,G,D][E,G,C] | %2
 [F,A,]2 [F,A,D]2 [F,CF]2 [D,C][D,A,] | [G,F]2 [G,CF]2[K:bass] [G,B,E][G,A,D][G,,G,][G,,F,] | %4
 [C,E,C]2 [C,F,B,]2 [C,E,C]2 [C,G,C][C,G,] | [C,C]2 [C,G,]2 [C,G,][C,G,][C,C][C,C] | %6
 [F,C]2 [F,C]2 [F,A,]4 | [D,C]>[D,C] [D,D][D,C] [D,C][D,C][D,D][D,C] | %8
 [G,B,G]2 [A,C][A,C] [B,D]G,[K:bass]A,B, | .[CE]2 [C,G,][C,G,] [C,C][C,B,][C,A,C][C,G,C] | %10
 z4 E2 z2 | [D,C]3 [D,C] [D,C][D,C][D,B,][D,A,] | [G,B,F]2 [G,B,F]2 [G,DF]2 [G,B,F][G,B,F] | %13
 [C,C]>[C,G,] [C,G,][C,G,] [C,C]2 [D,B,D][E,_B,C] | [F,A,C][F,A,C][F,A,C][K:treble][F,CF] [F,CF]4 | %15
 [G,CE][G,CE][G,CE][G,CE] [A,C^F][A,CF] z2 |[M:7/8][K:bass] [D,C]2 [G,D]2 [C,C]3 |] %17
V:3
 x8 | x8 | x8 | x8 | x8 | x8 | x8 | x8 | z4 =F4 | z2 E[EB] [EA][DG]FE | D2 F2 z2 D2 | x8 | x8 | %13
 x8 | x8 | x8 |[M:7/8] x7 |] %17
V:4
 x8 | x8 | x8 | x8 | x8 | x8 | x8 | x8 | z2 ^FF z B,CD | x8 | x8 | x8 | x8 | x8 | x8 | x8 | %16
[M:7/8] x7 |] %17
V:5
 x8 | x8 | x8 | x4[K:bass] x4 | x8 | x8 | x8 | x8 | x6[K:bass] x2 | x8 | [F,A,C]2 [F,A,C]2 [F,F]4 | %11
 x8 | x8 | x8 | x3[K:treble] x5 | x8 |[M:7/8][K:bass] x7 |] %17

